icons/1_Primary/Pleroma.svg

<svg width="1024" height="1024" viewBox="0 0 1024 1024" fill="none" xmlns="http://www.w3.org/2000/svg">
<g clip-path="url(#clip0_2_3162)">
<path d="M512 1024C794.77 1024 1024 794.77 1024 512C1024 229.23 794.77 0 512 0C229.23 0 0 229.23 0 512C0 794.77 229.23 1024 512 1024Z" fill="#F8C18C"/>
<path d="M391.66 256H479V768H351.81V295.86C351.81 285.29 356.008 275.153 363.481 267.678C370.954 260.203 381.09 256.003 391.66 256ZM543.42 256V512H632.33C642.902 512 653.04 507.8 660.515 500.325C667.991 492.85 672.19 482.712 672.19 472.14V256H543.42ZM543.42 768H632.33C642.902 768 653.04 763.8 660.515 756.325C667.991 748.85 672.19 738.712 672.19 728.14V640.77H543.43L543.42 768Z" fill="white"/>
</g>
<defs>
<clipPath id="clip0_2_3162">
<rect width="1024" height="1024" fill="white"/>
</clipPath>
</defs>
</svg>

<svg xmlns="http://www.w3.org/2000/svg" width="1024" height="1024" fill="none">
   <g clip-path="url(#a)">
      <path fill="#F8C18C" d="M512 1024c282.77 0 512-229.23 512-512S794.77 0 512 0 0 229.23 0 512s229.23 512 512 512Z"/>
      <path fill="#fff" d="M391.66 256H479v512H351.81V295.86A39.86 39.86 0 0 1 391.66 256Zm151.76 0v256h88.91a39.86 39.86 0 0 0 39.86-39.86V256H543.42Zm0 512h88.91a39.86 39.86 0 0 0 39.86-39.86v-87.37H543.43L543.42 768Z"/>
   </g>
   <defs>
      <clipPath id="a">
         <path fill="#fff" d="M0 0h1024v1024H0z"/>
      </clipPath>
   </defs>
</svg>
